X:1
T:FABRIC
T:HENRY COWELL
%%score { ( 1 2 ) | 3 }
L:1/8
Q:1/4=30
M:2/4
K:C
V:1 treble nm="Piano"
V:2 treble 
V:3 bass 
V:1
!mf!!p!"^principal melody in Alto""^Andante" (3z (_ag (3^de^c) | (7:4:7z (fe_dc!courtesy!=A_B) | %2
!>(! (3z _g'a!>)! (3_a!courtesy!=g_g | (3z (a=f (3e_ed) | (3z (=d'a (3^de^f) | (3z (a=f (3=e_e=d) | %6
 (7:4:7z f_e_dcG_B | (3z (c_d (3G=A_B) |!>(! (7:4:7z (_d'^de-!>)!e=d_d) | %9
 (7:4:7z (_g!courtesy!=fd^de^c) |!>(! (3z (^f'^g!>)! (3ae=c) | (7:4:7z (bg_gfe_e) | %12
 (3z (_d'=a (3_b=f=e) | (3z (_e'!courtesy!=d' (3c'_b=a) | (7:4:7z (_agd^de^c) | (3z (e_d (3cB_B) | %16
 (3z (a_b (3_gfe) | (3z (_dc (3_B_AG) | (3z (c_B (3A_A_G) | (3z (FA (3c_e_d |!ppp! [_D_B]4) |] %21
V:2
 (5:4:2(!>!_A3 G2 | (5:4:2E3!<(! F2!<)! | (5:4:4_g2) (f_e_B | (5:4:2A2 _B3 | (5:4:2_d3) c2 | %5
 (5:4:3_e2 _d2 (_G | (5:4:2F3 E2 | (5:4:2C4)!<(! (_D!<)! | (3:2:1_d3) (3(cA_B | %9
 (6:4:2^F4)!<(! (G2!<)! | ^f2 ^cA | (6:4:2B4)!<(! (c2!<)! | (5:4:2_d3 c2 | _e _d2) (_B | A2 G2 | %15
 E2 F2) | (A3 _B | _D4) | (C4 | _B,4- | B,4) |] %21
V:3
!p! (C,,/G,,/E,/)(^D/ E/^C/B,/^A,/) | (_D,,/_B,,/F,/)(=C/ _D/_B,/_A,/G,/) | %2
 (C,,/_E,/_B,/)(F/ _G/_E/_D/C/) | (_G,,/_F,/_B,/)(__A/ _G/!courtesy!=F/_F/_E/) | %4
 (9:8:9(_E,,/A,/D/F/)(_A/G/_G/F/_E/) | (_B,,/F,/_A,/)(_E/ F/_D/C/_B,/) | %6
 (9:8:9(C,,/G,,/E,/(A,/)C/_D/_B,/_A,/G,/) | (_B,,,/F,,/_D,/)(A,/ _B,/_A,/_G,/F,/) | %8
 (E,,/^C,/^G,/)(^D/ E/^C/A,/G,/) | (9:8:9(_E,,/_B,,/_D,/!courtesy!=F,/)(_E/_F/_D/_C/_B,/) | %10
 (9:8:9(=A,,/^F,/^C/E/)(^G/A/^F/D/^C/) | (^G,,/^D,/^F,/)(B,/ ^B,/A,/G,/F,/) | %12
 (_A,,/F,/C/)(G/ _A/_F/_D/C/) | (9:8:9(_B,,/F,/_D/F/)(A/_B/F/_E/_D/) | %14
 (9:8:9(C,,/G,,/E,/G,/)(^D/E/^C/=C/_B,/) | (9:8:8(_D,,/_B,,/F,/)(C_D/_B,/_A,/G,/) | %16
 (9:8:9(E,,/_B,,/_D,/G,/)(C/_D/_B,/_A,/G,/) | (_B,,/E,/G,/)(A,/ _B,/G,/F,/E,/) | %18
 (_B,,,/F,,/C,/)(F,/"^rit. e dim." _G,/_E,/_D,/C,/) | (_B,,,/F,,/_D,/F,/ A,/_B,/C/_E/) | %20
 [_B,,,_B,,]4 |] %21

